svg/white/btc.svg

<svg xmlns="http://www.w3.org/2000/svg" width="32" height="32" viewBox="0 0 32 32">
  <path fill="#FFF" fill-rule="evenodd" d="M16,32 C7.163444,32 0,24.836556 0,16 C0,7.163444 7.163444,0 16,0 C24.836556,0 32,7.163444 32,16 C32,24.836556 24.836556,32 16,32 Z M23.1889526,14.0201846 C23.5025526,11.9239385 21.9064911,10.7970462 19.7240911,10.0452923 L20.4320295,7.20566154 L18.7035372,6.77489231 L18.0143065,9.53969231 C17.5599065,9.42646154 17.0931988,9.31963077 16.6294449,9.21378462 L17.3235988,6.43076923 L15.5960911,6 L14.8876603,8.83864615 C14.5115372,8.75298462 14.1423065,8.66830769 13.7839065,8.5792 L13.7858757,8.57033846 L11.4021218,7.97513846 L10.9423065,9.82129231 C10.9423065,9.82129231 12.224768,10.1152 12.1976911,10.1334154 C12.8977526,10.3081846 13.0242757,10.7714462 13.0031065,11.1387077 L12.1967065,14.3736615 C12.2449526,14.3859692 12.3074757,14.4036923 12.3763988,14.4312615 C12.3187988,14.4169846 12.2572603,14.4012308 12.1937526,14.3859692 L11.0634142,18.9176615 C10.9777526,19.1303385 10.7606449,19.4493538 10.2712911,19.3282462 C10.2885218,19.3533538 9.01492185,19.0146462 9.01492185,19.0146462 L8.15682954,20.9932308 L10.4061834,21.5539692 C10.8246449,21.6588308 11.2347372,21.7686154 11.6384295,21.872 L10.9231065,24.7441231 L12.6496295,25.1748923 L13.3580603,22.3332923 C13.8296911,22.4612923 14.2875372,22.5794462 14.7355372,22.6907077 L14.029568,25.5190154 L15.7580603,25.9497846 L16.4733834,23.0830769 C19.4208295,23.6408615 21.6371988,23.4158769 22.5701218,20.7500308 C23.3218757,18.6035692 22.5327065,17.3654154 20.9819372,16.5580308 C22.1112911,16.2976 22.9619988,15.5547077 23.1889526,14.0201846 Z M19.2396603,19.5581538 C18.7055065,21.7046154 15.0914757,20.5442462 13.9197834,20.2532923 L14.8689526,16.4482462 C16.0406449,16.7406769 19.7979372,17.3196308 19.2396603,19.5581538 Z M19.7743065,13.9891692 C19.2869218,15.9416615 16.2789218,14.9496615 15.303168,14.7064615 L16.1637218,11.2553846 C17.1394757,11.4985846 20.2818757,11.9524923 19.7743065,13.9891692 Z"/>
</svg>

<svg xmlns="http://www.w3.org/2000/svg" width="32" height="32"><path fill="#FFF" fill-rule="evenodd" d="M16 32C7.163 32 0 24.837 0 16S7.163 0 16 0s16 7.163 16 16-7.163 16-16 16zm7.189-17.98c.314-2.096-1.283-3.223-3.465-3.975l.708-2.84-1.728-.43-.69 2.765c-.454-.114-.92-.22-1.385-.326l.695-2.783L15.596 6l-.708 2.839c-.376-.086-.746-.17-1.104-.26l.002-.009-2.384-.595-.46 1.846s1.283.294 1.256.312c.7.175.826.638.805 1.006l-.806 3.235c.048.012.11.03.18.057l-.183-.045-1.13 4.532c-.086.212-.303.531-.793.41.018.025-1.256-.313-1.256-.313l-.858 1.978 2.25.561c.418.105.828.215 1.231.318l-.715 2.872 1.727.43.708-2.84c.472.127.93.245 1.378.357l-.706 2.828 1.728.43.715-2.866c2.948.558 5.164.333 6.097-2.333.752-2.146-.037-3.385-1.588-4.192 1.13-.26 1.98-1.003 2.207-2.538zm-3.95 5.538c-.533 2.147-4.148.986-5.32.695l.95-3.805c1.172.293 4.929.872 4.37 3.11zm.535-5.569c-.487 1.953-3.495.96-4.47.717l.86-3.45c.975.243 4.118.696 3.61 2.733z"/></svg>
